!!!!SEGMENT: pl-sa--549-a-ix-29--018_anonim--valc.krn
!!!cenid: 18xx:472
!!!COM: Anonim
!!!COM-rismID: pe30004985
!!!CDT:
!!!CNT:
!!!OTL: Valc
!!!PDT:
!!!AGN: Secular; Waltz
!!!YEC: Copyright 2022 Narodowy Instytut Fryderyka Chopina (https://polishscores.org)
!!!YEM: License CC-BY-4.0 (https://creativecommons.org/licenses/by/4.0)
!!!SMS-siglum: PL-SA
!!!SMS-shelfmark: 549/A IX 29
!!!SMS-shelfwork: 018 W
!!!SMS-variant:
!!!SMS-altvar:
!!!NIFC-rismSourceID: 1001068438
!!!NIFC-rismChildID: 1001068438
!!!NIFC-islandoraID: none
!!!URL-pdf-islandora:
!!!URL-scan: https://bc.bdsandomierz.pl/dlibra/publication/1441/edition/1409/content @EN{Scan in the Sandomierz Diocese Digital Library} @PL{Skany w portalu Cyfrowa Biblioteka Diecezjalna w Sandomierzu}
!!!IIIF:
!!!ONB-nifc: Str. 13, s. 3-5
!!!AIN: 1 piano
!!!key: C
**kern	**fing	**kern	**fing	**dynam
*part1	*	*part1	*	*
*staff2	*	*staff1	*	*
*I"Piano	*	*I"Piano	*	*
*Ipiano	*	*Ipiano	*	*
*ICklav	*	*ICklav	*	*
*IGsolo	*	*IGsolo	*	*
*>[A,B,A]	*>[A,B,A]	*>[A,B,A]	*>[A,B,A]	*>[A,B,A]
*>A	*>A	*>A	*>A	*>A
*clefF4	*	*clefG2	*	*
*k[]	*	*k[]	*	*
*C:	*	*C:	*	*
*M3/8	*	*M3/8	*	*
!	!	!LO:TX:b:i:t=Valc, ruch walca ma rozumieć się, prędki	!	!
8r	.	8gg\	3	.
=1	=1	=1	=1	=1
!	!	!	!	!LO:DY:rj
8C\L	.	16aa\LL	4	p
.	.	16gg\	.	.
8G 8E\	.	16ff#X\	.	.
.	.	16gg\	.	.
8GJ 8E\	.	16ccc\	5	.
.	.	16gg\JJ	3	.
=2	=2	=2	=2	=2
*rep	*	*	*	*
!	!	!	!	!LO:DY:rj
8C\L	.	8ee\L	1	f
8G 8E\	.	8ee\	.	.
8GJ 8E\	.	8ee\J	.	.
*Xrep	*	*	*	*
=3	=3	=3	=3	=3
*rep	*	*	*	*
!	!	!	!	!LO:DY:rj
8C\L	.	16ff\LL	4	p
.	.	16ee\	3	.
8G 8E\	.	16dd#X\	.	.
.	.	16ee\	.	.
8GJ 8E\	.	16gg\	.	.
.	.	16ee\JJ	.	.
*Xrep	*	*	*	*
=4	=4	=4	=4	=4
*rep	*	*	*	*
!	!	!	!	!LO:DY:rj
8C\L	.	8cc\L	1	f
8G 8E\	.	8cc\	.	.
8GJ 8E\	.	8cc\J	.	.
*Xrep	*	*	*	*
=5	=5	=5	=5	=5
!	!	!	!	!LO:DY:rj
8BB\L	.	16cc#X\LL	.	fp
.	.	16dd\	.	.
8G 8F\	.	16ee\	.	.
.	.	16dd\JJ	.	.
8GJ 8F\	.	8g/	.	.
=6	=6	=6	=6	=6
*rep	*	*	*	*
!	!	!	!	!LO:DY:rj
8BB\L	.	16cc#X\LL	.	fp
.	.	16dd\	.	.
8G 8F\	.	16ee\	.	.
.	.	16dd\JJ	.	.
8GJ 8F\	.	8g/	.	.
*Xrep	*	*	*	*
=7	=7	=7	=7	=7
*rep	*	*	*	*
!	!	!	!	!LO:DY:rj
8BB\L	.	16cc#X\LL	2	fp
.	.	16dd\	3	.
8G 8F\	.	16ee\	4	.
.	.	16dd\	3	.
8GJ 8F\	.	16gg\	5	.
.	.	16ff\JJ	4	.
*Xrep	*	*	*	*
=8	=8	=8	=8	=8
8C\L	.	16ee\LL	3	.
.	.	16ff\	.	.
8G 8E\	.	16gg\	.	.
.	.	16ee\J	.	.
8GJ 8E\	.	8cc\J	.	.
=9	=9	=9	=9	=9
*rep	*	*	*	*
!	!	!	!	!LO:DY:rj
8C\L	.	16aa\LL	4	p
.	.	16gg\	.	.
8G 8E\	.	16ff#X\	.	.
.	.	16gg\	.	.
8GJ 8E\	.	16ccc\	.	.
.	.	16gg\JJ	.	.
*Xrep	*	*	*	*
=10	=10	=10	=10	=10
*rep	*	*	*	*
!	!	!	!	!LO:DY:rj
8C\L	.	8ee\L	1	f
8G 8E\	.	8ee\	.	.
8GJ 8E\	.	8ee\J	.	.
*Xrep	*	*	*	*
!!LO:LB:g=original
=11	=11	=11	=11	=11
!	!	!	!	!LO:DY:rj
8C\L	.	16ff\LL	4	p
.	.	16ee\	.	.
8G 8E\	.	16dd#X\	.	.
.	.	16ee\	.	.
8GJ 8E\	.	16gg\	.	.
.	.	16ee\JJ	.	.
=12	=12	=12	=12	=12
*rep	*	*	*	*
!	!	!	!	!LO:DY:rj
8C\L	.	8cc\L	1	f
8G 8E\	.	8cc\	.	.
8GJ 8E\	.	8cc\J	.	.
*Xrep	*	*	*	*
=13	=13	=13	=13	=13
!	!	!	!	!LO:DY:rj
8BB\L	.	16cc#X\LL	.	fp
.	.	16dd\	.	.
8G 8F\	.	16ee\	.	.
.	.	16dd\JJ	.	.
8GJ 8F\	.	8g/	.	.
=14	=14	=14	=14	=14
*rep	*	*	*	*
!	!	!	!	!LO:DY:rj
8BB\L	.	16cc#X\LL	.	fp
.	.	16dd\	.	.
8G 8F\	.	16ee\	.	.
.	.	16dd\JJ	.	.
8GJ 8F\	.	8g/	.	.
*Xrep	*	*	*	*
=15	=15	=15	=15	=15
*rep	*	*	*	*
!	!	!	!	!LO:DY:rj
8BB\L	.	16cc#X\LL	2	f
.	.	16dd\	3	.
8G 8F\	.	16gg\	5	.
.	.	16ff#X\	4	.
8GJ 8F\	.	16ffn\	3	.
.	.	16dd\JJ	1	.
*Xrep	*	*	*	*
=16	=16	=16	=16	=16
!LO:TX:t=P:problem=fermata na kresce taktowej	!	!LO:TX:t=P:problem=fermata na kresce taktowej	!	!
4G 4E 4C\;	.	4cc\;	2	.
=||	=||	=||	=||	=||
*>B	*>B	*>B	*>B	*>B
8r	.	8ee\	4	.
=17	=17	=17	=17	=17
!	!	!LO:TX:b:i:t=dolce	!	!
16G\LL	5	16ee\LL	.	.
16d\	.	16dd\	.	.
16B\	.	16cc#X\	.	.
16d\	.	16dd\	.	.
16B\	.	16cc#\	.	.
16d\JJ	.	16dd\JJ	.	.
=18	=18	=18	=18	=18
*rep	*	*	*	*
16G\LL	5	8gg\L	5	.
16d\	.	.	.	.
16B\	.	8gg\	2	.
16d\	.	.	.	.
16B\	.	8gg\J	2	.
16d\JJ	.	.	.	.
*Xrep	*	*	*	*
=19	=19	=19	=19	=19
16F#X\LL	.	16bb\LL	4	.
16d\	.	16aa\	.	.
16c\	.	16gg#X\	.	.
16d\	.	16aa\J	.	.
16c\	.	8ddd\J	.	.
16d\JJ	.	.	.	.
=20	=20	=20	=20	=20
16G\LL	.	16ccc\LL	4	.
16d\	.	16bb\	.	.
16B\	.	16ddd\	.	.
16d\	.	16bb\J	.	.
16B\	.	8gg\J	.	.
16d\JJ	.	.	.	.
!!LO:LB:g=original
=21	=21	=21	=21	=21
16G\LL	5	16ee\LL	4	.
16d\	.	16dd\	.	.
16B\	.	16cc#X\	.	.
16d\	.	16dd\	.	.
16B\	.	16cc#\	.	.
16d\JJ	.	16dd\JJ	.	.
=22	=22	=22	=22	=22
*rep	*	*	*	*
16G\LL	5	8gg\L	3	.
16d\	.	.	.	.
16B\	.	8gg\	1	.
16d\	.	.	.	.
16B\	.	8gg\J	1	.
16d\JJ	.	.	.	.
*Xrep	*	*	*	*
=23	=23	=23	=23	=23
!	!	!	!	!LO:DY:rj
16cLL 16F#X\	2 5	16gg#X\LL	2	f
16d\	1	16aa\	3	.
16c 16F#\	.	16ddd\	5	.
16d\	.	16ccc#X\	4	.
16c 16F#\	.	16cccn\	3	.
16d\JJ	.	16aa\JJ	1	.
=24	=24	=24	=24	=24
!	!	!LO:TX:b:i:t=Da Capo	!	!
4B 4G\	2 4	4gg\	3	.
==	==	==	==	==
*-	*-	*-	*-	*-
!!!system-decoration: {s1,s2}
!!!ENC: Andrzej Kubiczek
!!!END: 2020-06-16
!!!ENC: Marta Lawrence
!!!END: 2022-01-04
